X:1
T:Meilti Chean Dubhrann (The blue hills of Antrim)
M:3/4
L:1/8
K:Ador
|B,<D ~E2 E2| D<G E<D G,2 | G,>A, B,2 D2| A,~A,2 A,3 |
|D/2B,/2D/2 ~E2 E2| D<G E<D G,2 | G,>A, B,2 D2| A,~A,2 A,3 |
|~D2 B,<D E2| F/2G/2A/2 B2 E2| G<A B2 A2 | G>F G4 | 
|E/2F/2G/2 A2 B2 | A2 G>F G>G, | -G,>A, B,2 D2| A,~A,2 A,3 | 

